src/assets/duotone/DocumentCopy.svg

<svg width="24" height="24" viewBox="0 0 24 24"  xmlns="http://www.w3.org/2000/svg">
<path opacity="0.4" d="M15.5 13.15H13.33C11.55 13.15 10.1 11.71 10.1 9.92V7.75C10.1 7.34 9.77 7 9.35 7H6.18C3.87 7 2 8.5 2 11.18V17.82C2 20.5 3.87 22 6.18 22H12.07C14.38 22 16.25 20.5 16.25 17.82V13.9C16.25 13.48 15.91 13.15 15.5 13.15Z" />
<path d="M17.8198 2H15.8498H14.7598H11.9298C9.66977 2 7.83977 3.44 7.75977 6.01C7.81977 6.01 7.86977 6 7.92977 6H10.7598H11.8498H13.8198C16.1298 6 17.9998 7.5 17.9998 10.18V12.15V14.86V16.83C17.9998 16.89 17.9898 16.94 17.9898 16.99C20.2198 16.92 21.9998 15.44 21.9998 12.83V10.86V8.15V6.18C21.9998 3.5 20.1298 2 17.8198 2Z" />
<path d="M11.9801 7.14975C11.6701 6.83975 11.1401 7.04975 11.1401 7.47975V10.0998C11.1401 11.1998 12.0701 12.0998 13.2101 12.0998C13.9201 12.1098 14.9101 12.1098 15.7601 12.1098C16.1901 12.1098 16.4101 11.6098 16.1101 11.3098C15.0201 10.2198 13.0801 8.26975 11.9801 7.14975Z" />
</svg>

<?xml version="1.0" encoding="UTF-8"?>
<svg width="24" height="24" viewBox="0 0 24 24" xmlns="http://www.w3.org/2000/svg">
 <path d="m15.5 13.15h-2.17c-1.78 0-3.23-1.44-3.23-3.23v-2.17c0-0.41-0.33-0.75-0.75-0.75h-3.17c-2.31 0-4.18 1.5-4.18 4.18v6.64c0 2.68 1.87 4.18 4.18 4.18h5.89c2.31 0 4.18-1.5 4.18-4.18v-3.92c0-0.42-0.34-0.75-0.75-0.75z" opacity=".4"/>
 <path d="m17.82 2h-5.89c-2.26 0-4.09 1.44-4.17 4.01 0.06 0 0.11-0.01 0.17-0.01h5.89c2.31 0 4.18 1.5 4.18 4.18v6.65c0 0.06-0.01 0.11-0.01 0.16 2.23-0.07 4.01-1.55 4.01-4.16v-6.65c0-2.68-1.87-4.18-4.18-4.18z"/>
 <path d="m11.98 7.1498c-0.31-0.31-0.84-0.1-0.84 0.33v2.62c0 1.1 0.93 2 2.07 2 0.71 0.01 1.7 0.01 2.55 0.01 0.43 0 0.65-0.5 0.35-0.8-1.09-1.09-3.03-3.04-4.13-4.16z"/>
</svg>
